X: 33122
T: Prince's Welcome To Inverness, The
R: reel
M: 4/4
K: Gmajor
|:E|(G2G)B AGAB|(G2G)B AGED|(G2G)B AGAB|BAGE EDD:|
|:B|dedB AGAB|dedB BABd|dedB B2cB|BAGE EDD:|
|:d|gabg agbg|gabg agef|gfge dged|BAGE EDD:|
g|edBg edBg|edBA GEDC|B,DGA BedB|BAGE EDDg|
edBg edBg|edBA GED2|d3de fgz||

